web/wp-content/themes/cncf-twenty-two/images/map-markers/cncf-event.svg

<svg width="54" height="65" viewBox="0 0 54 65" fill="none" xmlns="http://www.w3.org/2000/svg">
<path d="M47 52.7021H34.5L27 61.9975L18.6667 52.7021H7C4.24167 52.7021 2 50.429 2 47.6319V7.07021C2 4.27315 4.24167 2 7 2H47C49.7583 2 52 4.27315 52 7.07021V47.6319C52 50.429 49.7583 52.7021 47 52.7021Z" fill="white" stroke="black" stroke-width="3"/>
<path d="M31.7923 21.2983L26.0077 15.5087H32.3612V11.1404H22.2145V15.5087L27.9991 21.2983H31.7923Z" fill="#93EAFF"/>
<path d="M26.5767 31.4041H22.7835L27.5724 36.2002L28.5207 37.1936H22.2145V41.5619H32.3612V37.1461L29.469 34.2941L26.5767 31.4041Z" fill="#93EAFF"/>
<path d="M38.1456 21.2981V27.6105L37.1499 26.6123L32.3611 21.8162V25.6616L35.206 28.5136L38.0982 31.4084H42.4604V21.2981H38.1456Z" fill="#93EAFF"/>
<path d="M22.2143 27.0401L16.4772 21.2981H12.1151V31.4037H16.4298V25.0912L22.2143 30.8856V27.0401Z" fill="#93EAFF"/>
<path d="M16.4298 31.4041H12.1151V41.5619H22.2143V37.1936H16.4298V31.4041Z" fill="#0086FF"/>
<path d="M38.1457 31.4516V37.1936H32.3611V41.5619H42.4604V31.4041H38.0982L38.1457 31.4516Z" fill="#0086FF"/>
<path d="M12.1151 21.2983H16.4772L16.4298 21.2508V15.5087H22.2143V11.1404H12.1151V21.2983Z" fill="#0086FF"/>
<path d="M32.3611 11.1404V15.5087H38.1457V21.2983H42.4604V11.1404H32.3611Z" fill="#0086FF"/>
</svg>

<svg width="54" height="65" viewBox="0 0 54 65" fill="none" xmlns="http://www.w3.org/2000/svg"><path d="M47 52.702H34.5L27 61.998l-8.333-9.296H7c-2.758 0-5-2.273-5-5.07V7.07C2 4.273 4.242 2 7 2h40c2.758 0 5 2.273 5 5.07v40.562c0 2.797-2.242 5.07-5 5.07Z" fill="#fff" stroke="#000" stroke-width="3"/><path d="m31.792 21.298-5.784-5.79h6.353V11.14H22.215v4.369l5.784 5.79h3.793Zm-5.215 10.106h-3.794l4.79 4.796.948.994h-6.306v4.368H32.36v-4.416l-2.892-2.852-2.892-2.89Zm11.569-10.106v6.313l-.996-.999-4.789-4.796v3.846l2.845 2.852 2.892 2.894h4.362v-10.11h-4.314ZM22.214 27.04l-5.737-5.742h-4.362v10.106h4.315V25.09l5.784 5.795V27.04Z" fill="#93EAFF"/><path d="M16.43 31.404h-4.315v10.158h10.1v-4.368H16.43v-5.79Zm21.716.048v5.742H32.36v4.368h10.1V31.404h-4.363l.048.048ZM12.115 21.298h4.362l-.047-.047v-5.742h5.784V11.14H12.115v10.158ZM32.361 11.14v4.369h5.785v5.79h4.314V11.14H32.361Z" fill="#0086FF"/></svg>
